public/svg/design.svg

<svg height="116" viewBox="0 0 114 116" width="114" xmlns="http://www.w3.org/2000/svg" xmlns:xlink="http://www.w3.org/1999/xlink"><linearGradient id="a"><stop offset="0" stop-color="#5e71da"/><stop offset="1" stop-color="#53bceb"/></linearGradient><linearGradient id="b" x1="85.4395%" x2="-39.5605%" xlink:href="#a" y1="750.283%" y2="-1719.717%"/><linearGradient id="c" x1="50%" x2="50%" xlink:href="#a" y1="97.555078%" y2="1.639785%"/><linearGradient id="d" x1="59.083375%" x2="27.833375%" xlink:href="#a" y1="89.748097%" y2="-46.999308%"/><g fill="none" transform="translate(0 .074468)"><path d="m71 76.9255319c-1.1 0-2 .9-2 2s.9 2 2 2 2-.9 2-2-.9-2-2-2z" fill="url(#b)"/><path d="m102.867188.92553192h-91.7343755c-6.1453125 0-11.1328125 4.98749999-11.1328125 11.13281248v68.1328125c0 6.1453125 4.9875 11.1328125 11.1328125 11.1328125h34.734375v10.2421876h-2.2265625c-2.9835938 0-5.7667969 1.157812-7.8820313 3.250781-2.0929687 2.092969-3.2507812 4.898438-3.2507812 7.882031 0 1.22461 1.0019531 2.226563 2.2265625 2.226563h44.53125c1.2246094 0 2.2265625-1.001953 2.2265625-2.226563 0-6.145312-4.9875-11.132812-11.1328125-11.132812h-2.2265625v-10.2421876h34.7343755c6.145312 0 11.132812-4.9875 11.132812-11.1328125v-68.1328125c0-6.14531249-4.9875-11.13281248-11.132812-11.13281248zm-91.7343755 4.45312499h91.7343755c3.673828 0 6.679687 3.00585938 6.679687 6.67968749v57h-10.2421875v-51.2109375c0-1.2246094-1.0019531-2.2265625-2.2265625-2.2265625h-17.8125c-1.2246094 0-2.2265625 1.0019531-2.2265625 2.2265625v51.2109375h-11.1550781c-.0222657-2.2933594-.0890625-4.5644531-.178125-6.76875-.4007813-9.0621094-1.2691407-15.140625-1.7367188-17.8125 4.5867188-3.384375 5.8558594-9.6410156 3.0503906-14.5171875l-7.7261718-13.359375c-.4007813-.6902344-1.1355469-1.1132812-1.9371094-1.1132812s-1.5363281.4230468-1.9371094 1.1132812l-7.7261719 13.359375c-2.6496093 4.5867188-1.7144531 10.5316406 2.4492188 14.0496094-.4898437 2.671875-1.4472656 8.9507812-1.8703125 18.2800781-.0890625 2.2265625-.1558594 4.4976563-.178125 6.76875h-11.1328125v-33.3984375c0-.35625-.0890625-.6679687-.2226563-.9574219 0-.0222656 0-.0222656-.0222656-.0445312l-8.90625-17.8125c-.3785156-.7570313-1.1578125-1.2246094-1.9816406-1.2246094s-1.603125.4675781-1.9816406 1.2246094l-8.90625 17.8125c0 .0222656 0 .0222656-.0222656.0445312-.1335938.2894532-.2226563.6234375-.2226563.9574219v33.3984375h-10.2421875v-57c0-3.67382811 3.00585938-6.67968749 6.6796875-6.67968749zm70.359375 63.67968749v-48.984375h13.359375v4.453125h-2.2265625c-1.2246094 0-2.2265625 1.0019531-2.2265625 2.2265625s1.0019531 2.2265625 2.2265625 2.2265625h2.2265625v6.6796875h-2.2265625c-1.2246094 0-2.2265625 1.0019531-2.2265625 2.2265625s1.0019531 2.2265625 2.2265625 2.2265625h2.2265625v6.6796875h-2.2265625c-1.2246094 0-2.2265625 1.0019531-2.2265625 2.2265625s1.0019531 2.2265625 2.2265625 2.2265625h2.2265625v8.90625h-2.2265625c-1.2246094 0-2.2265625 1.0019531-2.2265625 2.2265625s1.0019531 2.2265625 2.2265625 2.2265625h2.2265625v4.453125zm-24.1136719-22.4214844c.8015625 0 1.603125-.0890625 2.4046875-.2671875.4230469 2.6496094 1.0242188 7.3253907 1.3804688 13.7824219h-8.2828125c.3785156-6.4347656 1.0019531-11.1996094 1.4472656-13.9382812.9796875.2894531 2.0039062.4230468 3.0503906.4230468zm0-4.453125c-5.0988281 0-8.371875-5.5441406-5.7890625-10.0195312l5.7890625-10.0195313 5.7890625 10.0195313c2.5605469 4.453125-.6679687 10.0195312-5.7890625 10.0195312zm-4.7203125 22.4214844h8.6835938c.0445312 1.4695313.0890625 2.9613281.0890625 4.453125h-8.8839844c.0222656-1.4917969.0667969-2.9835937.1113281-4.453125zm-24.6035156 4.453125v-31.171875h4.453125v31.171875zm-8.90625 0v-31.171875h4.453125v31.171875zm1.3804687-35.625 5.2992188-10.5984375 5.2992187 10.5984375zm56.1316407 77.0390626h-39.3210938c.3339844-.935156.8683594-1.78125 1.5808594-2.49375 1.2691406-1.269141 2.9390625-1.959375 4.7203125-1.959375h26.71875c2.8945313 0 5.3882813 1.870312 6.3011719 4.453125zm-12.9808594-8.90625h-13.359375v-10.2421876h13.359375zm39.1875005-14.6953126h-91.7343755c-3.67382812 0-6.6796875-3.0058594-6.6796875-6.6796875v-6.6796875h105.09375v6.6796875c0 3.6738281-3.005859 6.6796875-6.679687 6.6796875z" fill="url(#c)"/><path d="m60.875 76.9255319h-12.75c-1.16875 0-2.125.9-2.125 2s.95625 2 2.125 2h12.75c1.16875 0 2.125-.9 2.125-2s-.95625-2-2.125-2z" fill="url(#d)"/></g></svg>

<?xml version="1.0" encoding="UTF-8"?>
<svg width="114px" height="116px" viewBox="0 0 114 116" version="1.1" xmlns="http://www.w3.org/2000/svg" xmlns:xlink="http://www.w3.org/1999/xlink">
    <title>design</title>
    <defs>
        <linearGradient x1="85.4395%" y1="750.283%" x2="-39.5605%" y2="-1719.717%" id="linearGradient-1">
            <stop stop-color="#5E71DA" offset="0%"></stop>
            <stop stop-color="#53BCEB" offset="100%"></stop>
        </linearGradient>
        <linearGradient x1="50%" y1="97.5550781%" x2="50%" y2="1.63978516%" id="linearGradient-2">
            <stop stop-color="#5E71DA" offset="0%"></stop>
            <stop stop-color="#53BCEB" offset="100%"></stop>
        </linearGradient>
        <linearGradient x1="59.083375%" y1="89.7480969%" x2="27.833375%" y2="-46.999308%" id="linearGradient-3">
            <stop stop-color="#5E71DA" offset="0%"></stop>
            <stop stop-color="#53BCEB" offset="100%"></stop>
        </linearGradient>
    </defs>
    <g id="Page-1" stroke="none" stroke-width="1" fill="none" fill-rule="evenodd">
        <g id="Home-desktop" transform="translate(-597.000000, -1092.000000)" fill-rule="nonzero">
            <g id="design" transform="translate(597.000000, 1092.074468)">
                <path d="M71,76.9255319 C69.9,76.9255319 69,77.8255319 69,78.9255319 C69,80.0255319 69.9,80.9255319 71,80.9255319 C72.1,80.9255319 73,80.0255319 73,78.9255319 C73,77.8255319 72.1,76.9255319 71,76.9255319 Z" id="Path" fill="url(#linearGradient-1)"></path>
                <path d="M102.867188,0.925531915 L11.1328125,0.925531915 C4.9875,0.925531915 0,5.91303191 0,12.0583444 L0,80.1911569 C0,86.3364694 4.9875,91.3239694 11.1328125,91.3239694 L45.8671875,91.3239694 L45.8671875,101.566157 L43.640625,101.566157 C40.6570312,101.566157 37.8738281,102.723969 35.7585937,104.816938 C33.665625,106.909907 32.5078125,109.715376 32.5078125,112.698969 C32.5078125,113.923579 33.5097656,114.925532 34.734375,114.925532 L79.265625,114.925532 C80.4902344,114.925532 81.4921875,113.923579 81.4921875,112.698969 C81.4921875,106.553657 76.5046875,101.566157 70.359375,101.566157 L68.1328125,101.566157 L68.1328125,91.3239694 L102.867188,91.3239694 C109.0125,91.3239694 114,86.3364694 114,80.1911569 L114,12.0583444 C114,5.91303191 109.0125,0.925531915 102.867188,0.925531915 Z M11.1328125,5.37865691 L102.867188,5.37865691 C106.541016,5.37865691 109.546875,8.38451629 109.546875,12.0583444 L109.546875,69.0583444 L99.3046875,69.0583444 L99.3046875,17.8474069 C99.3046875,16.6227975 98.3027344,15.6208444 97.078125,15.6208444 L79.265625,15.6208444 C78.0410156,15.6208444 77.0390625,16.6227975 77.0390625,17.8474069 L77.0390625,69.0583444 L65.8839844,69.0583444 C65.8617187,66.764985 65.7949219,64.4938913 65.7058594,62.2895944 C65.3050781,53.227485 64.4367187,47.1489694 63.9691406,44.4770944 C68.5558594,41.0927194 69.825,34.8360788 67.0195312,29.9599069 L59.2933594,16.6005319 C58.8925781,15.9102975 58.1578125,15.4872507 57.35625,15.4872507 C56.5546875,15.4872507 55.8199219,15.9102975 55.4191406,16.6005319 L47.6929687,29.9599069 C45.0433594,34.5466257 45.9785156,40.4915475 50.1421875,44.0095163 C49.6523438,46.6813913 48.6949219,52.9602975 48.271875,62.2895944 C48.1828125,64.5161569 48.1160156,66.7872507 48.09375,69.0583444 L36.9609375,69.0583444 L36.9609375,35.6599069 C36.9609375,35.3036569 36.871875,34.9919382 36.7382812,34.702485 C36.7382812,34.6802194 36.7382812,34.6802194 36.7160156,34.6579538 L27.8097656,16.8454538 C27.43125,16.0884225 26.6519531,15.6208444 25.828125,15.6208444 C25.0042969,15.6208444 24.225,16.0884225 23.8464844,16.8454538 L14.9402344,34.6579538 C14.9402344,34.6802194 14.9402344,34.6802194 14.9179688,34.702485 C14.784375,34.9919382 14.6953125,35.3259225 14.6953125,35.6599069 L14.6953125,69.0583444 L4.453125,69.0583444 L4.453125,12.0583444 C4.453125,8.38451629 7.45898438,5.37865691 11.1328125,5.37865691 Z M81.4921875,69.0583444 L81.4921875,20.0739694 L94.8515625,20.0739694 L94.8515625,24.5270944 L92.625,24.5270944 C91.4003906,24.5270944 90.3984375,25.5290475 90.3984375,26.7536569 C90.3984375,27.9782663 91.4003906,28.9802194 92.625,28.9802194 L94.8515625,28.9802194 L94.8515625,35.6599069 L92.625,35.6599069 C91.4003906,35.6599069 90.3984375,36.66186 90.3984375,37.8864694 C90.3984375,39.1110788 91.4003906,40.1130319 92.625,40.1130319 L94.8515625,40.1130319 L94.8515625,46.7927194 L92.625,46.7927194 C91.4003906,46.7927194 90.3984375,47.7946725 90.3984375,49.0192819 C90.3984375,50.2438913 91.4003906,51.2458444 92.625,51.2458444 L94.8515625,51.2458444 L94.8515625,60.1520944 L92.625,60.1520944 C91.4003906,60.1520944 90.3984375,61.1540475 90.3984375,62.3786569 C90.3984375,63.6032663 91.4003906,64.6052194 92.625,64.6052194 L94.8515625,64.6052194 L94.8515625,69.0583444 L81.4921875,69.0583444 Z M57.3785156,46.63686 C58.1800781,46.63686 58.9816406,46.5477975 59.7832031,46.3696725 C60.20625,49.0192819 60.8074219,53.6950632 61.1636719,60.1520944 L52.8808594,60.1520944 C53.259375,53.7173288 53.8828125,48.952485 54.328125,46.2138132 C55.3078125,46.5032663 56.3320312,46.63686 57.3785156,46.63686 Z M57.3785156,42.183735 C52.2796875,42.183735 49.0066406,36.6395944 51.5894531,32.1642038 L57.3785156,22.1446725 L63.1675781,32.1642038 C65.728125,36.6173288 62.4996094,42.183735 57.3785156,42.183735 Z M52.6582031,64.6052194 L61.3417969,64.6052194 C61.3863281,66.0747507 61.4308594,67.5665475 61.4308594,69.0583444 L52.546875,69.0583444 C52.5691406,67.5665475 52.6136719,66.0747507 52.6582031,64.6052194 Z M28.0546875,69.0583444 L28.0546875,37.8864694 L32.5078125,37.8864694 L32.5078125,69.0583444 L28.0546875,69.0583444 Z M19.1484375,69.0583444 L19.1484375,37.8864694 L23.6015625,37.8864694 L23.6015625,69.0583444 L19.1484375,69.0583444 Z M20.5289062,33.4333444 L25.828125,22.8349069 L31.1273437,33.4333444 L20.5289062,33.4333444 Z M76.6605469,110.472407 L37.3394531,110.472407 C37.6734375,109.537251 38.2078125,108.691157 38.9203125,107.978657 C40.1894531,106.709516 41.859375,106.019282 43.640625,106.019282 L70.359375,106.019282 C73.2539063,106.019282 75.7476563,107.889594 76.6605469,110.472407 Z M63.6796875,101.566157 L50.3203125,101.566157 L50.3203125,91.3239694 L63.6796875,91.3239694 L63.6796875,101.566157 Z M102.867188,86.8708444 L11.1328125,86.8708444 C7.45898438,86.8708444 4.453125,83.864985 4.453125,80.1911569 L4.453125,73.5114694 L109.546875,73.5114694 L109.546875,80.1911569 C109.546875,83.864985 106.541016,86.8708444 102.867188,86.8708444 Z" id="Shape" fill="url(#linearGradient-2)"></path>
                <path d="M60.875,76.9255319 L48.125,76.9255319 C46.95625,76.9255319 46,77.8255319 46,78.9255319 C46,80.0255319 46.95625,80.9255319 48.125,80.9255319 L60.875,80.9255319 C62.04375,80.9255319 63,80.0255319 63,78.9255319 C63,77.8255319 62.04375,76.9255319 60.875,76.9255319 Z" id="Path" fill="url(#linearGradient-3)"></path>
            </g>
        </g>
    </g>
</svg>
